styles/1/Numix/64/places/grey-folder-wine.svg

<?xml version="1.0" encoding="UTF-8" standalone="no"?>
<!-- Created with Inkscape (http://www.inkscape.org/) -->

<svg
   xmlns:dc="http://purl.org/dc/elements/1.1/"
   xmlns:cc="http://creativecommons.org/ns#"
   xmlns:rdf="http://www.w3.org/1999/02/22-rdf-syntax-ns#"
   xmlns:svg="http://www.w3.org/2000/svg"
   xmlns="http://www.w3.org/2000/svg"
   xmlns:sodipodi="http://sodipodi.sourceforge.net/DTD/sodipodi-0.dtd"
   xmlns:inkscape="http://www.inkscape.org/namespaces/inkscape"
   width="64"
   height="64"
   id="svg2"
   version="1.1"
   inkscape:version="0.91 r"
   sodipodi:docname="grey-folder-wine.svg"
   inkscape:export-filename="/media/Data/Main/Visuals/Icons/Numix/Desktop/repos/numix-wiki/Gjorgi/Numix-folders/48/New/folder-144.png"
   inkscape:export-xdpi="270"
   inkscape:export-ydpi="270">
  <defs
     id="defs4" />
  <sodipodi:namedview
     id="base"
     pagecolor="#ffffff"
     bordercolor="#666666"
     borderopacity="1.0"
     inkscape:pageopacity="0.0"
     inkscape:pageshadow="2"
     inkscape:zoom="8.5652428"
     inkscape:cx="38.122096"
     inkscape:cy="28.903555"
     inkscape:document-units="px"
     inkscape:current-layer="layer1"
     showgrid="true"
     inkscape:window-width="1280"
     inkscape:window-height="998"
     inkscape:window-x="0"
     inkscape:window-y="0"
     inkscape:window-maximized="1"
     showguides="true"
     inkscape:guide-bbox="true">
    <inkscape:grid
       type="xygrid"
       id="grid2985"
       empspacing="5"
       visible="true"
       enabled="true"
       snapvisiblegridlinesonly="true" />
  </sodipodi:namedview>
  <metadata
     id="metadata7">
    <rdf:RDF>
      <cc:Work
         rdf:about="">
        <dc:format>image/svg+xml</dc:format>
        <dc:type
           rdf:resource="http://purl.org/dc/dcmitype/StillImage" />
        <dc:title />
      </cc:Work>
    </rdf:RDF>
  </metadata>
  <g
     inkscape:label="Layer 1"
     inkscape:groupmode="layer"
     id="layer1"
     transform="translate(0,-988.3622)">
    <path
       style="font-size:medium;font-style:normal;font-variant:normal;font-weight:normal;font-stretch:normal;text-indent:0;text-align:start;text-decoration:none;line-height:normal;letter-spacing:normal;word-spacing:normal;text-transform:none;direction:ltr;block-progression:tb;writing-mode:lr-tb;text-anchor:start;baseline-shift:baseline;color:#000000;fill:#bdbdbd;fill-opacity:1;fill-rule:nonzero;stroke:none;stroke-width:2.28612947;marker:none;visibility:visible;display:inline;overflow:visible;enable-background:accumulate;font-family:Sans;-inkscape-font-specification:Sans"
       d="M 6.0625 10 C 4.9330849 10.11097 3.9815877 11.1778 4 12.3125 L 4 51.6875 C 3.986 52.9021 5.0979255 54.0139 6.3125 54 L 57.6875 54 C 58.902076 54.014 60.013966 52.9021 60 51.6875 L 60 16.3125 C 60.014 15.0979 58.902076 13.9861 57.6875 14 L 38 14 L 38 12.3125 C 38.01375 11.11871 36.943717 10.01891 35.75 10 L 6.3125 10 C 6.22925 9.995 6.1457495 9.99499 6.0625 10 z M 41.03125 24 C 41.238528 23.998 41.455346 24.0155 41.65625 24.0625 C 41.66203 24.0765 41.6816 24.0495 41.6875 24.0625 C 42.973122 25.1875 44.008142 26.53175 44.75 28.03125 C 44.7581 28.04825 44.7421 28.07775 44.75 28.09375 C 44.933606 28.59045 45.154105 29.1172 45.34375 29.75 C 45.449545 30.1031 45.605902 30.51795 45.75 30.90625 C 45.908469 31.67435 46 32.47115 46 33.28125 C 46 40.33475 39.71876 48 31.96875 48 C 24.714091 48 18.733373 41.01985 18 34.59375 C 18.195251 34.50755 22.063276 30.2029 29.8125 33.4375 C 39.22471 37.3662 43.389641 33.44465 43.78125 31.78125 C 44.172857 30.11805 43.660183 27.03125 42.09375 27.03125 C 40.527317 27.03125 38.551428 27.74475 38.8125 25.84375 C 38.975669 24.65585 39.994865 24.016 41.03125 24 z M 31 26 C 31.552284 26 32 26.4476 32 27 C 32 27.5524 31.552284 28 31 28 C 30.447716 28 30 27.5524 30 27 C 30 26.4476 30.447716 26 31 26 z M 36 28 C 37.10457 28 38 28.8954 38 30 C 38 31.1046 37.10457 32 36 32 C 34.89543 32 34 31.1046 34 30 C 34 28.8954 34.89543 28 36 28 z "
       transform="translate(0,988.3622)"
       id="path3912" />
  </g>
</svg>

<!-- Created with Inkscape (http://www.inkscape.org/) -->
<svg xmlns="http://www.w3.org/2000/svg" viewBox="0 0 64 64">
 <g transform="translate(0,-988.3622)">
  <path d="m 6.06 10 c -1.129 0.111 -2.081 1.178 -2.063 2.313 l 0 39.38 c -0.014 1.215 1.098 2.326 2.313 2.313 l 51.38 0 c 1.215 0.014 2.326 -1.098 2.313 -2.313 l 0 -35.37 c 0.014 -1.215 -1.098 -2.326 -2.313 -2.313 l -19.688 0 l 0 -1.688 c 0.014 -1.194 -1.056 -2.294 -2.25 -2.313 l -29.438 0 c -0.083 -0.005 -0.167 -0.005 -0.25 0 z m 34.969 14 c 0.207 -0.002 0.424 0.015 0.625 0.063 c 0.006 0.014 0.025 -0.013 0.031 0 c 1.286 1.125 2.321 2.469 3.063 3.969 c 0.008 0.017 -0.008 0.047 0 0.063 c 0.184 0.497 0.404 1.023 0.594 1.656 c 0.106 0.353 0.262 0.768 0.406 1.156 c 0.158 0.768 0.25 1.565 0.25 2.375 c 0 7.05 -6.281 14.719 -14.03 14.719 c -7.255 0 -13.235 -6.98 -13.969 -13.406 c 0.195 -0.086 4.063 -4.391 11.813 -1.156 c 9.412 3.929 13.577 0.007 13.969 -1.656 c 0.392 -1.663 -0.121 -4.75 -1.688 -4.75 c -1.566 0 -3.542 0.713 -3.281 -1.188 c 0.163 -1.188 1.182 -1.828 2.219 -1.844 z m -10.03 2 c 0.552 0 1 0.448 1 1 c 0 0.552 -0.448 1 -1 1 c -0.552 0 -1 -0.448 -1 -1 c 0 -0.552 0.448 -1 1 -1 z m 5 2 c 1.105 0 2 0.895 2 2 c 0 1.105 -0.895 2 -2 2 c -1.105 0 -2 -0.895 -2 -2 c 0 -1.105 0.895 -2 2 -2 z" transform="translate(0,988.3622)" style="visibility:visible;fill:#bdbdbd;fill-opacity:1;stroke:none;display:inline;color:#000;fill-rule:nonzero"/>
 </g>
</svg>
